X:1
T:Toutes les nuitcz
T:Toutes les nuitcz
T:Clement Janequin
C:Clement Janequin
%%score [ 1 2 3 4 ]
L:1/8
Q:1/4=100
M:2/2
K:Ab
V:1 treble nm="Soprano" snm="S"
V:2 treble nm="Alto" snm="A"
V:3 treble-8 nm="Tenor" snm="T"
V:4 bass nm="Bass" snm="B"
V:1
|: E8 | E4 E4 | F4 z2 F2 | F2 E2 A4 | G2 G2 G2 G2 | F4 z2 A2 | A2 A2 EFGA | B2 F2 F2 G2 | G8 :| %9
w: Tou-|tes les|nuits tu|m'es pré- sen-|te Par son- ge|doux, par|son- ge doux _ _ _|_ et gra- ci-|eux.|
w: Mais|tous les|jours tu|m'es ab- sen-|te Qui m'es re-|gretz, qui|me re- gretz _ _ _|_ fort en- nuy-|eux.|
 c2 c2 c2 c2 | A3 B cd ed/c/ | BABc de f2- | f2 e4 d2 | e2 c2 c2 c2 | d6 c2 | B2 A2 G4 | %16
w: Puis donc que la|nuit _ _ _ _ _ _|_ _ _ _ _ _ _|* me vaut|mieux Et que je|n'ai bien|que par son-|
w: |||||||
 F2 A4 G2 |: F4 E2 d2 | c4 c4 | B2 G2 G2 G2 | c2 c2 A4 | A4 G4 |1 G2 z2 z2 B2- | B2 A2 G4 | %24
w: ge. Dor- mez|de jour Ô|pau- vres|yeux! A- fin que|sans ces- se|je son-|ge. Dor-|* mez de|
w: ||||||||
 F2 A4 G2 :|2 G2 c2 c2 B2- || B2 A2 G4 | F8 | E8 |] %29
w: jour, dor- mez|ge, que sans ces-|* se je|son-|ge.|
w: |||||
V:2
|: C8 | B,4 B,4 | D8 | z2 E2 C2 A,2 | C4 B,4 | D4 D2 D2 | C6 B,2 | D6 E2 | E8 :| E2 E2 E2 E2 | %10
w: Tou-|tes les|nuits|tu m'es pré-|sen- te|Par son- ge|doux et|gra- ci-|eux.|Puis donc que la|
w: Mais|tous les|jours|tu m'es ab-|sen- te|Qui me re-|gretz fort|en- nuy-|eux.||
 FEFG AG/F/ EF | GFGA B2 B2 | A2 G2 F2 F2 | E2 A2 A2 A2 | F3 G/A/ B2 A2 | G2 F2 E4 | A,2 F4 E2 |: %17
w: nuit, _ _ _ _ _ _ _ _|_ _ _ _ _ que|la nuit me vaut|mieux Et que je|n'ai _ _ _ bien|que par son-|ge. Dor- mez|
w: |||||||
 D4 C2 A2 | A4 A4 | G4 E2 EE | E2 E2 F2 C2 | D4 B,2 E2 |1 E2 E2 E2 E2 | F2 D2 E4 | A,2 F4 E2 :|2 %25
w: de jour Ô|pau- vres|yeux! A- fin que|sans ces- se je|son- ge, a-|fin que sans ces-|se je son-|ge. Dor- mez|
w: ||||||||
 E2 E2 E2 E2 || F2 D2 E4 | A,8- | A,8 |] %29
w: fin que sans ces-|se je son-|ge.|_|
w: ||||
V:3
|: A8 | G4 G4 | A2 F2 B2 B2 | A4 ABcd | e2 e2 e2 e2 | A4 z4 | A2 A2 A2 G2 | F2 B4 B2 | B8 :| %9
w: Tou-|tes les|nuits tu m'es pré-|sen- te _ _ _|_ Par son- ge|doux,|par son- ge doux|et gra- ci-|eux.|
w: Mais|tous les|jours tu m'es ab-|sen- te _ _ _|_ Qui me re-|gretz,|qui me re- gretz|fort en- nuy-|eux.|
 A2 A2 A2 A2 | d3 c/B/ ABcd | e4 z2 B2 | F2 G2 A2 B2 | c2 F2 F2 F2 | B2 B2 B2 F2 | B4 c4 | %16
w: Puis donc que la|nuit, _ _ _ _ _ _|_ que|la nuit me vaut|mieux Et que je|n'ai bien que par|son- ge.|
w: |||||||
 d4 c2 c2 |: A4 z2 f2 | e4 e4 | e2 e2 B2 c2 | G2 c2 c2 c2 | f2 f2 e2 B2 |1 c3 B/A/ GABc | dcBA B4 | %24
w: Dor- mez de|jour Ô|pau- vres|yeux, ô pau- vres|yeux! A- fin que|sans ces- se je|son- * * * * * *|* * * * ge.|
w: ||||||||
 d4 c2 c2 :|2 c3 B/A/ GABc || dcBA B4 | d8 | c8 |] %29
w: Dor- mez de|son- * * * * * *|||ge.|
w: |||||
V:4
|: A,,8 | E,4 E,4 | D,4 B,,2 D,2- | D,2 C,2 F,4 | E,4 E,4 | D,2 D,2 B,,C,D,E, | %6
w: Tou-|tes les|nuits tu m'es|_ pré- sen-|te Par|son- ge doux _ _ _|
w: Mais|tous les|jours tu- m'es|_ ab- sen-|te Qui|me re- gretz _ _ _|
 F,3 E,/D,/ C,2 E,2 | B,,6 E,2 | E,8 :| z8 | z8 | z8 | z8 | z8 | z8 | z4 z2 E,2 | %16
w: _ _ _ _ et|gra- ci-|eux.|||||||Dor-|
w: _ _ _ _ fort|en- nuy-|eux.||||||||
 D,C,D,E, F,2 C,2 |: D,2 D,2 A,,2 D,2 | A,4 A,4 | E,4 z2 C,2 | C,2 C,2 F,2 F,2 | D,2 D,2 E,4 |1 %22
w: mez, _ _ _ _ dor-|mez de jour Ô|pau- vres|yeux! A-|fin que sans ces-|se je son-|
w: ||||||
 C,2 C,2 E,2 E,2 | D,2 F,2 E,2 E,2 | D,4 A,,2 C,2 :|2 C,2 C,2 E,2 E,2 || D,2 F,2 E,2 E,2 | D,8 | %28
w: ge, a- fin que|sans ces- se je|son- ge. Dor|ge, a- fin que|sans ces- se je|son-|
w: ||||||
 A,,8 |] %29
w: ge.|
w: |

